X: 1
T:Clark's favorite
M:4/4
L:1/8
S:the radio, I forget which show.......
R:reel
K:EMin
B,E (3EEE B,EEF|GFEF DA, (3A,A,A,|B,E (3EEE B,EEF|GFED E2EE|!
B,E (3EEE B,EEF|GFEF DA, (3A,A,A,|B,EGE CEGE|FAdA FEDE:|!
|:+Ee+Beg fgeg|fdad bdad|+Ee+Beg fgeg|fedB e2ee|!
+Ee+Beg fgeg|fdad bdad|+Ee+FGA B2GB|Beed edBG:|!
